X: 3353
T: NEW YORK HORNPIPE
R: Hornpipe.
%R: hornpipe, reel
B: James Kerr "Merry Melodies" v.3 p.38 #353
Z: 2016 John Chambers <jc:trillian.mit.edu>
M: C
L: 1/8
K: A
E2 |\
AGAB cBcd | ecaf ecAc |\
dfdB cecA | dcBA GEFG |\
AGAB cBcd | ecaf ecAc |\
dfed cBAG | B2A2 A2 :|
|: e2 |\
cece agfe | dcde d2d2 |\
BdBd gfed | cBcd c2E2 |\
AGAB cBcd | ecaf ecAc |\
dfed cBAG | B2A2 A2 :|

%%sep 1 1 500
%%sep 1 1 500

